X:3165
T:Colección Feij\'oo: N\'umero 1
O:Galicia (Spain)
B:Libro Aires da Terra, de J.L. Calle
Z:Transcrito por Jos\'e J. Presedo
Z:Covertido de Midi a abc por Antonio-Nil
N:http://www.arrakis.es/~jpresedo/
M: 4/4
L: 1/8
Q:1/4=210
K:D % 2 sharps
z6 D2|E3/2F/2 EC D2 E2|FA FD AF DF|E3/2F/2 EC D2 E2|
FA FD DD EF|GF GE FD EF|GF GE FD EF|GF GE FE FG|
AF AF GF GA|BA cB AB cA|d3B =c2 (3B=cB|A8|
d3B =c2 B/2=cB/2|G3-G/2A/2 GF GA|B^c Bc AB GA|F3-F/2G/2 FE FG|
BA GF AG FG|E2 E2 E2 EF|GF GE AG FE|D6 EF|
GA FG EF DE|C3-C/2D/2 EF GA|BA BF AF GE|D6 EF|
GA FG EF DE|C3z/2D/2 EF GA|BA BF AF GE|D4 FA GE|
FG FD FG EC|DB AF DA GE|FG FD FG EC|dc Bc AB =cA|
=cB AG F3/2A/2 GE|BA GF EF GE|FG FE DE FD|EF ED CD EA|
D6 F2|E3/2F/2 EC D2 E2|FA FD AF DF|E3/2F/2 EC D2 E2|
FA FD DD EF|GF GE FD EF|GF GE FD EF|GF GE FE FG|
AF AF GF GA|BA ^cB AB cA|d3B =c2 (3B=cB|A8|
d3B =c2 B/2=cB/2|G3-G/2A/2 GF GA|B^c Bc AB GA|F3-F/2G/2 FE FG|
BA GF AG FG|E2 E2 E2 EF|GF GE AG FE|D6 EF|
GA FG EF DE|C3z/2D/2 EF GA|BA BF AF GE|D6 EF|
GA FG EF DE|C3z/2D/2 EF GA|BA BF AF GE|D4 FA GE|
FG FD FG EC|DB AF DA GE|FG FD FG EC|dc Bc AB =cA|
=cB AG F3/2A/2 GE|BA GF EF GE|FG FE DE FD|EF ED CD EA|
D6 


